projects/elonkit/storybook/assets/icons/upload.svg

<svg width="25" height="24" viewBox="0 0 25 24" xmlns="http://www.w3.org/2000/svg">
<path d="M9.5 16V10H5.5L12.5 3L19.5 10H15.5V16H9.5ZM5.5 20V18H19.5V20H5.5Z" />
<path d="M9.5 16V10H5.5L12.5 3L19.5 10H15.5V16H9.5ZM5.5 20V18H19.5V20H5.5Z" />
</svg>

<svg width="25" height="24" xmlns="http://www.w3.org/2000/svg"><path d="M9.5 16v-6h-4l7-7 7 7h-4v6h-6zm-4 4v-2h14v2h-14z"/><path d="M9.5 16v-6h-4l7-7 7 7h-4v6h-6zm-4 4v-2h14v2h-14z"/></svg>
